G/google maps platform (mapsplatform.google) logo.svg

<?xml version="1.0" ?>
<svg xmlns="http://www.w3.org/2000/svg" viewBox="0 0 187 24" fill="none">
	<path fill="#1A73E8" d="M11.324 1.007A8.013 8.013 0 0 0 8.908.635 7.983 7.983 0 0 0 2.78 3.492l3.78 3.18 4.764-5.665Z"/>
	<path fill="#EA4335" d="M2.78 3.492A7.971 7.971 0 0 0 .905 8.637c0 1.505.301 2.726.791 3.818L6.56 6.672l-3.78-3.18Z"/>
	<path fill="#4285F4" d="M8.907 5.575a3.06 3.06 0 0 1 2.338 5.035l4.764-5.662a8.014 8.014 0 0 0-4.682-3.94L6.559 6.671a3.053 3.053 0 0 1 2.348-1.097Z"/>
	<path fill="#FBBC04" d="M8.908 11.697a3.06 3.06 0 0 1-2.346-5.025l-4.866 5.78c.832 1.845 2.214 3.323 3.637 5.186l5.912-7.028a3.051 3.051 0 0 1-2.337 1.087Z"/>
	<path fill="#34A853" d="M11.127 19.56c2.671-4.174 5.783-6.07 5.783-10.923a7.96 7.96 0 0 0-.9-3.686L5.332 17.64a29.22 29.22 0 0 1 1.355 1.919c1.623 2.506 1.174 4.012 2.22 4.012 1.048 0 .596-1.506 2.219-4.012Z"/>
	<path fill="#757575" d="M84.723 19.182h-1.562V7.02h1.562l4.231 7.405h.069l4.23-7.405h1.563v12.162h-1.562v-7.22l.068-2.038h-.068L89.447 16.6h-.917l-3.807-6.677h-.068l.068 2.038v7.22Zm15.386-8.596c1.155 0 2.066.309 2.734.925.668.618 1.005 1.464 1.005 2.54v5.13h-1.495v-1.154h-.068c-.646.952-1.505 1.426-2.58 1.426-.918 0-1.687-.271-2.305-.816a2.597 2.597 0 0 1-.925-2.039c0-.859.326-1.546.977-2.055.651-.509 1.519-.763 2.608-.763.928 0 1.694.17 2.293.509v-.356c0-.545-.216-1.005-.646-1.385a2.203 2.203 0 0 0-1.51-.57c-.873 0-1.563.367-2.072 1.106l-1.376-.864c.755-1.09 1.877-1.634 3.36-1.634Zm-2.022 6.048c0 .408.172.747.517 1.018.345.27.75.408 1.215.408.657 0 1.243-.244 1.76-.73.514-.488.772-1.06.772-1.717-.488-.386-1.166-.577-2.039-.577-.635 0-1.163.153-1.59.46-.422.306-.635.686-.635 1.138Zm11.817 2.822c-.61 0-1.169-.132-1.675-.392-.504-.26-.892-.605-1.163-1.037h-.069l.069 1.155v3.67h-1.563V10.859h1.494v1.155h.069c.271-.43.659-.774 1.163-1.037a3.599 3.599 0 0 1 1.675-.391c1.097 0 2.028.43 2.786 1.291.783.87 1.174 1.919 1.174 3.142 0 1.234-.391 2.283-1.174 3.142-.758.865-1.686 1.294-2.786 1.294Zm-.255-1.43c.747 0 1.377-.281 1.886-.848.509-.555.763-1.275.763-2.156 0-.873-.254-1.593-.763-2.156-.512-.567-1.139-.852-1.886-.852-.758 0-1.393.285-1.902.852-.498.566-.747 1.286-.747 2.156 0 .884.249 1.606.747 2.173a2.474 2.474 0 0 0 1.902.832Zm11.837-1.154c0 .725-.318 1.338-.953 1.834-.635.498-1.434.747-2.394.747-.838 0-1.574-.22-2.209-.654a3.59 3.59 0 0 1-1.36-1.724l1.393-.594c.205.498.501.886.892 1.163a2.18 2.18 0 0 0 1.284.416c.498 0 .914-.107 1.248-.323.334-.216.503-.47.503-.764 0-.533-.407-.922-1.223-1.171l-1.426-.356c-1.62-.408-2.43-1.19-2.43-2.345 0-.758.309-1.369.925-1.826.616-.46 1.407-.69 2.37-.69.736 0 1.401.176 1.998.526.594.35 1.012.821 1.248 1.41l-1.393.577a1.748 1.748 0 0 0-.775-.824 2.433 2.433 0 0 0-1.198-.298c-.408 0-.775.101-1.098.306-.323.203-.484.452-.484.748 0 .476.449.815 1.341 1.018l1.259.323c1.655.413 2.482 1.245 2.482 2.501Zm6.932-2.616v4.926h-1.563V7.02h4.146c1.054 0 1.949.35 2.685 1.053.747.704 1.122 1.558 1.122 2.565 0 1.031-.372 1.894-1.122 2.583-.725.693-1.62 1.037-2.685 1.037h-2.583v-.002Zm0-5.742v4.248h2.616c.624 0 1.139-.209 1.546-.63.419-.419.63-.917.63-1.494 0-.567-.211-1.06-.63-1.478-.407-.43-.922-.646-1.546-.646h-2.616Zm9.119-1.494h-1.563v12.165h1.563V7.02Zm4.956 3.566c1.155 0 2.066.309 2.734.925.668.618 1.004 1.464 1.004 2.54v5.13h-1.494v-1.154h-.068c-.646.952-1.505 1.426-2.581 1.426-.917 0-1.686-.271-2.304-.816a2.596 2.596 0 0 1-.925-2.039c0-.859.325-1.546.977-2.055.651-.509 1.519-.763 2.608-.763.928 0 1.694.17 2.293.509v-.356c0-.545-.216-1.005-.646-1.385a2.203 2.203 0 0 0-1.51-.57c-.873 0-1.563.367-2.072 1.106l-1.377-.864c.756-1.09 1.878-1.634 3.361-1.634Zm-2.022 6.048c0 .408.172.747.517 1.018.345.27.75.408 1.215.408.657 0 1.242-.244 1.76-.73.514-.488.771-1.06.771-1.717-.487-.386-1.165-.577-2.038-.577-.635 0-1.164.153-1.59.46-.422.306-.635.686-.635 1.138Zm10.563 2.685c-.668 0-1.229-.208-1.68-.63-.454-.419-.687-1.001-.698-1.748v-4.656h-1.461V10.86h1.461V8.312h1.563v2.548h3.738V9.652c0-.827.263-1.495.788-2.006.526-.51 1.204-.764 2.031-.764.566 0 1.032.096 1.393.29l-.424 1.377a2.017 2.017 0 0 0-.917-.203c-.386 0-.701.134-.944.4-.244.265-.364.618-.364 1.062v1.053h2.175v1.426h-2.175v6.897h-1.563v-6.897h-3.738v4.195c0 .488.098.838.298 1.054a.921.921 0 0 0 .706.323c.26 0 .509-.052.747-.153l.493 1.393a4.354 4.354 0 0 1-1.429.219Zm7.338-4.297c0-1.278.402-2.34 1.206-3.177.816-.838 1.842-1.256 3.077-1.256 1.234 0 2.252.418 3.057 1.256.815.837 1.223 1.896 1.223 3.177 0 1.292-.408 2.35-1.223 3.177-.805.838-1.823 1.257-3.057 1.257-1.235 0-2.261-.42-3.077-1.257-.807-.84-1.206-1.899-1.206-3.177Zm1.56 0c0 .895.262 1.62.782 2.173.52.556 1.166.832 1.938.832a2.55 2.55 0 0 0 1.937-.832c.52-.555.783-1.278.783-2.173 0-.884-.26-1.604-.783-2.156-.533-.567-1.179-.849-1.937-.849s-1.404.282-1.938.849c-.52.552-.782 1.272-.782 2.156Zm9.893 4.16h-1.563V10.86h1.494v1.36h.069c.158-.44.484-.819.977-1.13.492-.313.977-.469 1.453-.469.451 0 .837.069 1.155.203l-.476 1.513c-.192-.079-.499-.117-.917-.117-.589 0-1.1.238-1.538.714a2.38 2.38 0 0 0-.654 1.664v4.584Zm6.086 0h-1.562v-8.323h1.494v1.155h.068c.238-.407.605-.747 1.095-1.018.493-.27.982-.408 1.47-.408.61 0 1.149.143 1.612.425.465.282.804.673 1.018 1.171.692-1.065 1.647-1.598 2.87-1.598.964 0 1.705.295 2.225.884.523.588.783 1.426.783 2.515v5.2h-1.563v-4.962c0-.783-.142-1.344-.424-1.691-.284-.345-.758-.518-1.428-.518-.6 0-1.106.255-1.514.764-.407.509-.61 1.111-.61 1.8v4.604h-1.563v-4.96c0-.782-.142-1.343-.424-1.69-.285-.345-.758-.518-1.428-.518-.6 0-1.106.255-1.514.764-.408.509-.61 1.111-.61 1.8v4.604h.005Zm-145.427.268c-3.788 0-6.97-3.087-6.97-6.877 0-3.79 3.182-6.878 6.97-6.878 2.096 0 3.588.821 4.71 1.894l-1.325 1.325c-.804-.756-1.894-1.341-3.385-1.341-2.764 0-4.929 2.23-4.929 4.997s2.162 4.997 4.929 4.997c1.792 0 2.816-.72 3.47-1.374.536-.536.887-1.308 1.024-2.364h-4.54v-1.88h6.368c.068.336.098.739.098 1.174 0 1.41-.386 3.153-1.625 4.395-1.207 1.262-2.748 1.932-4.795 1.932Zm15.958-4.425c0 2.548-1.992 4.428-4.436 4.428s-4.437-1.878-4.437-4.428c0-2.567 1.993-4.428 4.437-4.428s4.436 1.86 4.436 4.428Zm-1.943 0c0-1.593-1.155-2.685-2.493-2.685-1.339 0-2.494 1.09-2.494 2.685 0 1.576 1.155 2.684 2.494 2.684 1.338-.002 2.493-1.108 2.493-2.684Zm11.598 0c0 2.548-1.992 4.428-4.436 4.428s-4.436-1.878-4.436-4.428c0-2.567 1.992-4.428 4.436-4.428s4.436 1.86 4.436 4.428Zm-1.943 0c0-1.593-1.155-2.685-2.493-2.685-1.338 0-2.493 1.09-2.493 2.685 0 1.576 1.155 2.684 2.493 2.684 1.338-.002 2.493-1.108 2.493-2.684Zm11.179-4.16v7.95c0 3.27-1.926 4.614-4.206 4.614-2.146 0-3.434-1.442-3.922-2.616l1.694-.706c.301.722 1.038 1.576 2.228 1.576 1.459 0 2.362-.906 2.362-2.6v-.637h-.066c-.435.536-1.275 1.007-2.331 1.007-2.212 0-4.24-1.93-4.24-4.412 0-2.498 2.028-4.444 4.24-4.444 1.056 0 1.893.47 2.331.99h.066v-.72h1.844v-.002Zm-1.71 4.176c0-1.56-1.04-2.701-2.362-2.701-1.34 0-2.463 1.141-2.463 2.701 0 1.544 1.122 2.666 2.463 2.666 1.325 0 2.362-1.122 2.362-2.666Zm5.052-8.872h-1.943v13.016h1.943V6.169Zm7.537 10.314 1.508 1.008c-.487.72-1.659 1.962-3.686 1.962-2.513 0-4.393-1.946-4.393-4.428 0-2.633 1.894-4.428 4.174-4.428 2.296 0 3.418 1.828 3.787 2.816l.2.503-5.917 2.447c.452.89 1.155 1.341 2.146 1.341.99.003 1.677-.484 2.181-1.22Zm-4.642-1.592 3.955-1.645c-.216-.553-.87-.939-1.642-.939-.99 0-2.364.873-2.313 2.584Z"/>
</svg>

<?xml version="1.0" ?>
<svg xmlns="http://www.w3.org/2000/svg" viewBox="0 0 187 24" fill="none">
	<style>
		.cls0 { fill: #1A73E8; }
		.cls1 { fill: #EA4335; }
		.cls2 { fill: #4285F4; }
		.cls3 { fill: #FBBC04; }
		.cls4 { fill: #34A853; }
		.cls5 { fill: #757575; }
	</style>
	<path d="M 11.324,1.007 A 8.013,8.013 0.0 0,0 8.908,0.635 A 7.983,7.983 0.0 0,0 2.78,3.492 L 6.56,6.672 L 11.324,1.007 L 11.324,1.007" class="cls0"/>
	<path d="M 2.78,3.492 A 7.971,7.971 0.0 0,0 0.905,8.637 C 0.905,10.142 1.206,11.363 1.696,12.455 L 6.56,6.672 L 2.78,3.492 L 2.78,3.492" class="cls1"/>
	<path d="M 8.907,5.575 A 3.06,3.06 0.0 0,1 11.245,10.61 L 16.009,4.948 A 8.014,8.014 0.0 0,0 11.327,1.008 L 6.559,6.671 A 3.053,3.053 0.0 0,1 8.907,5.574 L 8.907,5.575" class="cls2"/>
	<path d="M 8.908,11.697 A 3.06,3.06 0.0 0,1 6.562,6.672 L 1.696,12.452 C 2.528,14.297 3.91,15.775 5.333,17.638 L 11.245,10.61 A 3.051,3.051 0.0 0,1 8.908,11.697 L 8.908,11.697" class="cls3"/>
	<path d="M 11.127,19.56 C 13.798,15.386 16.91,13.49 16.91,8.637 A 7.96,7.96 0.0 0,0 16.01,4.951 L 5.332,17.64 A 29.22,29.22 0.0 0,1 6.687,19.559 C 8.31,22.065 7.861,23.571 8.907,23.571 C 9.955,23.571 9.503,22.065 11.126,19.559 L 11.127,19.56" class="cls4"/>
	<path d="M 84.723,19.182 L 83.161,19.182 L 83.161,7.02 L 84.723,7.02 L 88.954,14.425 L 89.023,14.425 L 93.253,7.02 L 94.816,7.02 L 94.816,19.182 L 93.254,19.182 L 93.254,11.962 L 93.322,9.924 L 93.254,9.924 L 89.447,16.6 L 88.53,16.6 L 84.723,9.923 L 84.655,9.923 L 84.723,11.961 L 84.723,19.181 L 84.723,19.182 M 100.109,10.586 C 101.264,10.586 102.175,10.895 102.843,11.511 C 103.511,12.129 103.848,12.975 103.848,14.051 L 103.848,19.181 L 102.353,19.181 L 102.353,18.027 L 102.285,18.027 C 101.639,18.979 100.78,19.453 99.705,19.453 C 98.787,19.453 98.018,19.182 97.4,18.637 A 2.597,2.597 0.0 0,1 96.475,16.598 C 96.475,15.739 96.801,15.052 97.452,14.543 C 98.103,14.034 98.971,13.78 100.06,13.78 C 100.988,13.78 101.754,13.95 102.353,14.289 L 102.353,13.933 C 102.353,13.388 102.137,12.928 101.707,12.548 A 2.203,2.203 0.0 0,0 100.197,11.978 C 99.324,11.978 98.634,12.345 98.125,13.084 L 96.749,12.22 C 97.504,11.13 98.626,10.586 100.109,10.586 L 100.109,10.586 M 98.087,16.634 C 98.087,17.042 98.259,17.381 98.604,17.652 C 98.949,17.922 99.354,18.06 99.819,18.06 C 100.476,18.06 101.062,17.816 101.579,17.33 C 102.093,16.842 102.351,16.27 102.351,15.613 C 101.863,15.227 101.185,15.036 100.312,15.036 C 99.677,15.036 99.149,15.189 98.722,15.496 C 98.3,15.802 98.087,16.182 98.087,16.634 M 109.904,19.456 C 109.294,19.456 108.735,19.324 108.229,19.064 C 107.725,18.804 107.337,18.459 107.066,18.027 L 106.997,18.027 L 107.066,19.182 L 107.066,22.852 L 105.503,22.852 L 105.503,10.859 L 106.997,10.859 L 106.997,12.014 L 107.066,12.014 C 107.337,11.584 107.725,11.24 108.229,10.977 A 3.599,3.599 0.0 0,1 109.904,10.586 C 111.001,10.586 111.932,11.016 112.69,11.877 C 113.473,12.747 113.864,13.796 113.864,15.019 C 113.864,16.253 113.473,17.302 112.69,18.161 C 111.932,19.026 111.004,19.455 109.904,19.455 L 109.904,19.456 M 109.649,18.026 C 110.396,18.026 111.026,17.745 111.535,17.178 C 112.044,16.623 112.298,15.903 112.298,15.022 C 112.298,14.149 112.044,13.429 111.535,12.866 C 111.023,12.299 110.396,12.014 109.649,12.014 C 108.891,12.014 108.256,12.299 107.747,12.866 C 107.249,13.432 107.0,14.152 107.0,15.022 C 107.0,15.906 107.249,16.628 107.747,17.195 A 2.474,2.474 0.0 0,0 109.649,18.027 L 109.649,18.026 M 121.486,16.872 C 121.486,17.597 121.168,18.21 120.533,18.706 C 119.898,19.204 119.099,19.453 118.139,19.453 C 117.301,19.453 116.565,19.233 115.93,18.799 A 3.59,3.59 0.0 0,1 114.57,17.075 L 115.963,16.481 C 116.168,16.979 116.464,17.367 116.855,17.644 A 2.18,2.18 0.0 0,0 118.139,18.06 C 118.637,18.06 119.053,17.953 119.387,17.737 C 119.721,17.521 119.89,17.267 119.89,16.973 C 119.89,16.44 119.483,16.051 118.667,15.802 L 117.241,15.446 C 115.621,15.038 114.811,14.256 114.811,13.101 C 114.811,12.343 115.12,11.732 115.736,11.275 C 116.352,10.815 117.143,10.585 118.106,10.585 C 118.842,10.585 119.507,10.761 120.104,11.111 C 120.698,11.461 121.116,11.932 121.352,12.521 L 119.959,13.098 A 1.748,1.748 0.0 0,0 119.184,12.274 A 2.433,2.433 0.0 0,0 117.986,11.976 C 117.578,11.976 117.211,12.077 116.888,12.282 C 116.565,12.485 116.404,12.734 116.404,13.03 C 116.404,13.506 116.853,13.845 117.745,14.048 L 119.004,14.371 C 120.659,14.784 121.486,15.616 121.486,16.872 M 128.418,14.256 L 128.418,19.182 L 126.855,19.182 L 126.855,7.02 L 131.001,7.02 C 132.055,7.02 132.95,7.37 133.686,8.073 C 134.433,8.777 134.808,9.631 134.808,10.638 C 134.808,11.669 134.436,12.532 133.686,13.221 C 132.961,13.914 132.066,14.258 131.001,14.258 L 128.418,14.258 L 128.418,14.256 L 128.418,14.256 M 128.418,8.514 L 128.418,12.762 L 131.034,12.762 C 131.658,12.762 132.173,12.553 132.58,12.132 C 132.999,11.713 133.21,11.215 133.21,10.638 C 133.21,10.071 132.999,9.578 132.58,9.16 C 132.173,8.73 131.658,8.514 131.034,8.514 L 128.418,8.514 M 137.537,7.02 L 135.974,7.02 L 135.974,19.185 L 137.537,19.185 L 137.537,7.02 M 142.493,10.586 C 143.648,10.586 144.559,10.895 145.227,11.511 C 145.895,12.129 146.231,12.975 146.231,14.051 L 146.231,19.181 L 144.737,19.181 L 144.737,18.027 L 144.669,18.027 C 144.023,18.979 143.164,19.453 142.088,19.453 C 141.171,19.453 140.402,19.182 139.784,18.637 A 2.596,2.596 0.0 0,1 138.859,16.598 C 138.859,15.739 139.184,15.052 139.836,14.543 C 140.487,14.034 141.355,13.78 142.444,13.78 C 143.372,13.78 144.138,13.95 144.737,14.289 L 144.737,13.933 C 144.737,13.388 144.521,12.928 144.091,12.548 A 2.203,2.203 0.0 0,0 142.581,11.978 C 141.708,11.978 141.018,12.345 140.509,13.084 L 139.132,12.22 C 139.888,11.13 141.01,10.586 142.493,10.586 L 142.493,10.586 M 140.471,16.634 C 140.471,17.042 140.643,17.381 140.988,17.652 C 141.333,17.922 141.738,18.06 142.203,18.06 C 142.86,18.06 143.445,17.816 143.963,17.33 C 144.477,16.842 144.734,16.27 144.734,15.613 C 144.247,15.227 143.569,15.036 142.696,15.036 C 142.061,15.036 141.532,15.189 141.106,15.496 C 140.684,15.802 140.471,16.182 140.471,16.634 L 140.471,16.634 M 151.034,19.319 C 150.366,19.319 149.805,19.111 149.354,18.689 C 148.9,18.27 148.667,17.688 148.656,16.941 L 148.656,12.285 L 147.195,12.285 L 147.195,10.86 L 148.656,10.86 L 148.656,8.312 L 150.219,8.312 L 150.219,10.86 L 153.957,10.86 L 153.957,9.652 C 153.957,8.825 154.22,8.157 154.745,7.646 C 155.271,7.136 155.949,6.882 156.776,6.882 C 157.342,6.882 157.808,6.978 158.169,7.172 L 157.745,8.549 A 2.017,2.017 0.0 0,0 156.828,8.346 C 156.442,8.346 156.127,8.48 155.884,8.746 C 155.64,9.011 155.52,9.364 155.52,9.808 L 155.52,10.861 L 157.695,10.861 L 157.695,12.287 L 155.52,12.287 L 155.52,19.184 L 153.957,19.184 L 153.957,12.287 L 150.219,12.287 L 150.219,16.482 C 150.219,16.97 150.317,17.32 150.517,17.536 A 0.921,0.921 0.0 0,0 151.223,17.859 C 151.483,17.859 151.732,17.807 151.97,17.706 L 152.463,19.099 A 4.354,4.354 0.0 0,1 151.034,19.318 L 151.034,19.319 M 158.372,15.022 C 158.372,13.744 158.774,12.682 159.578,11.845 C 160.394,11.007 161.42,10.589 162.655,10.589 C 163.889,10.589 164.907,11.007 165.712,11.845 C 166.527,12.682 166.935,13.741 166.935,15.022 C 166.935,16.314 166.527,17.372 165.712,18.199 C 164.907,19.037 163.889,19.456 162.655,19.456 C 161.42,19.456 160.394,19.036 159.578,18.199 C 158.771,17.359 158.372,16.3 158.372,15.022 M 159.932,15.022 C 159.932,15.917 160.194,16.642 160.714,17.195 C 161.234,17.751 161.88,18.027 162.652,18.027 A 2.55,2.55 0.0 0,0 164.589,17.195 C 165.109,16.64 165.372,15.917 165.372,15.022 C 165.372,14.138 165.112,13.418 164.589,12.866 C 164.056,12.299 163.41,12.017 162.652,12.017 C 161.894,12.017 161.248,12.299 160.714,12.866 C 160.194,13.418 159.932,14.138 159.932,15.022 L 159.932,15.022 M 169.825,19.182 L 168.262,19.182 L 168.262,10.86 L 169.756,10.86 L 169.756,12.22 L 169.825,12.22 C 169.983,11.78 170.309,11.401 170.802,11.09 C 171.294,10.777 171.779,10.621 172.255,10.621 C 172.706,10.621 173.092,10.69 173.41,10.824 L 172.934,12.337 C 172.742,12.258 172.435,12.22 172.017,12.22 C 171.428,12.22 170.917,12.458 170.479,12.934 A 2.38,2.38 0.0 0,0 169.825,14.598 L 169.825,19.182 M 175.911,19.182 L 174.349,19.182 L 174.349,10.859 L 175.843,10.859 L 175.843,12.014 L 175.911,12.014 C 176.149,11.607 176.516,11.267 177.006,10.996 C 177.499,10.726 177.988,10.588 178.476,10.588 C 179.086,10.588 179.625,10.731 180.088,11.013 C 180.553,11.295 180.892,11.686 181.106,12.184 C 181.798,11.119 182.753,10.586 183.976,10.586 C 184.94,10.586 185.681,10.881 186.201,11.47 C 186.724,12.058 186.984,12.896 186.984,13.985 L 186.984,19.185 L 185.421,19.185 L 185.421,14.223 C 185.421,13.44 185.279,12.879 184.997,12.532 C 184.713,12.187 184.239,12.014 183.569,12.014 C 182.969,12.014 182.463,12.269 182.055,12.778 C 181.648,13.287 181.445,13.889 181.445,14.578 L 181.445,19.182 L 179.882,19.182 L 179.882,14.222 C 179.882,13.44 179.74,12.879 179.458,12.532 C 179.173,12.187 178.7,12.014 178.03,12.014 C 177.43,12.014 176.924,12.269 176.516,12.778 C 176.108,13.287 175.906,13.889 175.906,14.578 L 175.906,19.182 L 175.911,19.182 L 175.911,19.182 M 30.484,19.45 C 26.696,19.45 23.514,16.363 23.514,12.573 C 23.514,8.783 26.696,5.695 30.484,5.695 C 32.58,5.695 34.072,6.516 35.194,7.589 L 33.869,8.914 C 33.065,8.158 31.975,7.573 30.484,7.573 C 27.72,7.573 25.555,9.803 25.555,12.57 C 25.555,15.337 27.717,17.567 30.484,17.567 C 32.276,17.567 33.3,16.847 33.954,16.193 C 34.49,15.657 34.841,14.885 34.978,13.829 L 30.438,13.829 L 30.438,11.949 L 36.806,11.949 C 36.874,12.285 36.904,12.688 36.904,13.123 C 36.904,14.533 36.518,16.276 35.279,17.518 C 34.072,18.78 32.531,19.45 30.484,19.45 M 46.442,15.025 C 46.442,17.573 44.45,19.453 42.006,19.453 C 39.562,19.453 37.569,17.575 37.569,15.025 C 37.569,12.458 39.562,10.597 42.006,10.597 C 44.45,10.597 46.442,12.457 46.442,15.025 M 44.499,15.025 C 44.499,13.432 43.344,12.34 42.006,12.34 C 40.667,12.34 39.512,13.43 39.512,15.025 C 39.512,16.601 40.667,17.709 42.006,17.709 C 43.344,17.707 44.499,16.601 44.499,15.025 M 56.097,15.025 C 56.097,17.573 54.105,19.453 51.661,19.453 C 49.217,19.453 47.225,17.575 47.225,15.025 C 47.225,12.458 49.217,10.597 51.661,10.597 C 54.105,10.597 56.097,12.457 56.097,15.025 M 54.154,15.025 C 54.154,13.432 52.999,12.34 51.661,12.34 C 50.323,12.34 49.168,13.43 49.168,15.025 C 49.168,16.601 50.323,17.709 51.661,17.709 C 52.999,17.707 54.154,16.601 54.154,15.025 M 65.333,10.865 L 65.333,18.815 C 65.333,22.085 63.407,23.429 61.127,23.429 C 58.981,23.429 57.693,21.987 57.205,20.813 L 58.899,20.107 C 59.2,20.829 59.937,21.683 61.127,21.683 C 62.586,21.683 63.489,20.777 63.489,19.083 L 63.489,18.446 L 63.423,18.446 C 62.988,18.982 62.148,19.453 61.092,19.453 C 58.88,19.453 56.852,17.523 56.852,15.041 C 56.852,12.543 58.88,10.597 61.092,10.597 C 62.148,10.597 62.985,11.067 63.423,11.587 L 63.489,11.587 L 63.489,10.867 L 65.333,10.867 L 65.333,10.865 L 65.333,10.865 M 63.623,15.041 C 63.623,13.481 62.583,12.34 61.261,12.34 C 59.921,12.34 58.798,13.481 58.798,15.041 C 58.798,16.585 59.92,17.707 61.261,17.707 C 62.586,17.707 63.623,16.585 63.623,15.041 L 63.623,15.041 M 68.675,6.169 L 66.732,6.169 L 66.732,19.185 L 68.675,19.185 L 68.675,6.169 L 68.675,6.169 M 76.212,16.483 L 77.72,17.491 C 77.233,18.211 76.061,19.453 74.034,19.453 C 71.521,19.453 69.641,17.507 69.641,15.025 C 69.641,12.392 71.535,10.597 73.815,10.597 C 76.111,10.597 77.233,12.425 77.602,13.413 L 77.802,13.916 L 71.885,16.363 C 72.337,17.253 73.04,17.704 74.031,17.704 C 75.021,17.707 75.708,17.22 76.212,16.484 L 76.212,16.483 M 71.57,14.891 L 75.525,13.246 C 75.309,12.693 74.655,12.307 73.883,12.307 C 72.893,12.307 71.519,13.18 71.57,14.891" class="cls5"/>
</svg>
